X: 494
T: CHRISTMAS EVE
B: O'Neill's 494
Z: 1999 by John Chambers <jc@trillian.mit.edu>
N: "Moderate"
N: Collected by "F.O'Neill"
M: C
L: 1/8
K:G
BA \
| G3E D2EG | A2A2 Bdge | d3c BAGA | B2E2 E2BA |
| GEDE G2GA | B2d2 efge |d2B2 A2GA | B2G2 G2 ||
|| Bc \
| d3c BAGA | B2d2 egfa | g3e d3B | A2E2 EcBA |
| G3E D2EG | A2A2 Bdge | d3c BAGA | B2G2 G2 |]


